X:1
T: Hamilton's Strathspey
C:
R:Strathspey
Q: 128
K:D
M:4/4
L:1/16
|:A,3D F3D A3D d2cB|A3D F3D CE3 E3F|A,3D F3D A3D d2cB|A3F G3E FE3 D4|
A,3D F3D A3D d2cB|A3D F3D CE3 E3F|A,3D F3D A3D d2cB|A3F G3E FE3 D2g2|
((3f2g2a2) ((3g2f2e2) d2A2 F2D2|A,2D2 F2A2 BE3 E3g|((3f2g2a2) ((3g2f2e2) ((3d2e2f2) ((3e2d2c2) |((3B2c2d2) ((3A2B2c2) dD3 D3g|
((3f2g2a2) ((3g2f2e2) d2A2 F2D2|A,2D2 F2A2 BE3 E3F|A,2D2 F2D2 GBdg b3g|f2d2 e2a2 fd3 d4:|
